!!!!SEGMENT: pl-kk--kk-i-111--003-002_anonim--deo-gratias-per-octavas-2dum.krn
!!!cenid: 18xx:2558
!!!COM: Anonim
!!!COM-rismID: pe30004985
!!!CDT:
!!!CNT:
!!!GTL: Deo gratias
!!!OTL: Per Octavas 2dum
!!!OMV: 002
!!!PDT: 1824
!!!AGN: Sacred
!!!SMS-siglum: PL-Kk
!!!SMS-shelfmark: Kk.I.111
!!!SMS-shelfwork: 003-002 G
!!!SMS-variant:
!!!SMS-altvar:
!!!NIFC-rismSourceID: 1001156407
!!!NIFC-rismChildID: 1001157672
!!!NIFC-islandoraID: pl-kk:3371
!!!URL-pdf-islandora: https://repozytorium.nifc.pl/islandora/object/pl-kk%3A3371/datastream/PDF/view
!!!URL-scan: https://polish.musicsources.pl/pl/lokalizacje/galeria/rekopisy/5747 @EN{Scan on Polish Music Sources Website} @PL{Skany w portalu Dziedzictwo Muzyki Polskiej w otwartym dostępie}
!!!ONB-nifc: UWAGA: A, T1, T2. Podział na poszególne Deo gratias. A: skan 0002 (m.in)
!!!AIN: 1 alto 2 tenor
!!!key:
**kern	**text	**kern	**text	**kern	**text
*part3	*part3	*part2	*part2	*part1	*part1
*staff3	*staff3	*staff2	*staff2	*staff1	*staff1
*Itenor	*	*Itenor	*	*Ialto	*
*I"Tenore Vagante.	*	*I"Tenore Chorale.	*	*I"Alto.	*
*I'T 2	*	*I'T 1	*	*I'A	*
*clefC4	*	*clefC4	*	*clefC3	*
*k[]	*	*k[]	*	*k[]	*
*d:	*	*d:	*	*d:	*
*M2/1	*	*M2/1	*	*M2/1	*
*met(C|)	*	*met(C|)	*	*met(C|)	*
*all\right	*	*	*	*all\right	*
=1-	=1-	=1-	=1-	=1-	=1-
0r	.	00r	.	1.d	De-
!	!	!	!	!LO:TX:t=P:problem=kreska pseudotaktowa	!
.	.	.	.	2c#X/	.
=2-	=2-	=2-	=2-	=2-	=2-
*	*	*	*	*2\right	*
!LO:TX:a:t=3.	!	!	!	!	!
!LO:TX:t=P:problem=kreska pseudotaktowa	!	!	!	!	!
1r	.	.	.	2d\	-o-
!	!	!	!	!LO:TX:t=P:problem=kreska pseudotaktowa	!
.	.	.	.	2f\	.
2r	.	.	.	2e\	.
!	!	!	!	!LO:TX:t=P:problem=kreska pseudotaktowa	!
1A\	De-	.	.	2d\	.
=3-	=3-	=3-	=3-	=3-	=3-
.	.	00r	.	2cny\	-gra-
!LO:TX:t=P:problem=kreska pseudotaktowa	!	!	!	!LO:TX:t=P:problem=kreska pseudotaktowa	!
2G/	.	.	.	2B/	.
2A/	-o-	.	.	2c/	.
*2\right	*	*	*	*	*
!LO:TX:t=P:problem=kreska pseudotaktowa	!	!	!	!LO:TX:t=P:problem=kreska pseudotaktowa	!
2c\	.	.	.	2e\	.
=4-	=4-	=4-	=4-	=4-	=4-
2B\	-gra-	.	.	2g\	.
!LO:TX:t=P:problem=kreska pseudotaktowa	!	!	!	!LO:TX:t=P:problem=kreska pseudotaktowa	!
2A\	.	.	.	2f\	.
2G/	.	.	.	2e\	.
!LO:TX:t=P:problem=kreska pseudotaktowa	!	!	!	!LO:TX:t=P:problem=kreska pseudotaktowa	!
2F/	.	.	.	2d\	ti-
=5-	=5-	=5-	=5-	=5-	=5-
!LO:TX:t=P:problem=kreska pseudotaktowa	!	!	!	!LO:TX:t=P:problem=kreska pseudotaktowa	!
1E	.	0r	.	1e	-as
2.D/	.	.	.	2r	.
!	!	!	!	!LO:TX:t=P:problem=kreska pseudotaktowa	!
.	.	.	.	2a\	De-
!LO:TX:t=P:problem=kreska pseudotaktowa	!	!	!	!	!
4D/	-ti-	.	.	.	.
=6-	=6-	=6-	=6-	=6-	=6-
!	!	!LO:TX:t=P:problem=kreska pseudotaktowa	!	!	!
2E/	-as	1r	.	2g\	-o-
!LO:TX:t=P:problem=kreska pseudotaktowa	!	!	!	!	!
2r	.	.	.	1f	.
!LO:TX:a:t=1.	!	!	!	!	!
!LO:TX:t=P:problem=kreska pseudotaktowa	!	!	!	!	!
1r	.	1A	De-	.	.
.	.	.	.	1e\	-gra-
=7-	=7-	=7-	=7-	=7-	=7-
2r	.	1.A	.	.	.
!LO:TX:t=P:problem=kreska pseudotaktowa	!	!	!	!	!
2e\	De-	.	.	4d\	.
!	!	!	!	!LO:TX:t=P:problem=kreska pseudotaktowa	!
.	.	.	.	4c\	.
!LO:TX:t=P:problem=kreska pseudotaktowa	!	!	!	!LO:TX:t=P:problem=kreska pseudotaktowa	!
1d	-o-	.	.	1B	.
!	!	!LO:TX:t=P:problem=kreska pseudotaktowa	!	!	!
.	.	2G#X/	-o-	.	.
=8-	=8-	=8-	=8-	=8-	=8-
!	!	!LO:TX:t=P:problem=kreska pseudotaktowa	!	!	!
2.c\	-gra-	1A	.	2.c\	.
!LO:TX:t=P:problem=kreska pseudotaktowa	!	!	!	!LO:TX:t=P:problem=kreska pseudotaktowa	!
4B\	.	.	.	4d\	-ti-
!	!	!LO:TX:t=P:problem=kreska pseudotaktowa	!	!LO:TX:t=P:problem=kreska pseudotaktowa	!
2G/	.	1c	.	1e	-as
!LO:TX:t=P:problem=kreska pseudotaktowa	!	!	!	!	!
2A/	-ti-	.	.	.	.
=9-	=9-	=9-	=9-	=9-	=9-
!LO:TX:t=P:problem=kreska pseudotaktowa	!	!LO:TX:t=P:problem=kreska pseudotaktowa	!	!	!
1B	-as.	1B	.	2r	.
.	.	.	.	1e	De-
!LO:TX:a:t=1.	!	!	!	!	!
!LO:TX:t=P:problem=kreska pseudotaktowa	!	!	!	!	!
1r	.	1.A	.	.	.
!	!	!	!	!LO:TX:t=P:problem=kreska pseudotaktowa	!
.	.	.	.	2d\	-o
=10-	=10-	=10-	=10-	=10-	=10-
2r	.	.	.	2c\	gra-
!	!	!LO:TX:t=P:problem=kreska pseudotaktowa	!	!LO:TX:t=P:problem=kreska pseudotaktowa	!
1e	De-	2Gny/	.	2B/	.
!	!	!LO:TX:t=P::problem=kreska pseudotaktowa&colon;między nutą i kropką	!	!	!
.	.	0.A	-gra-	2.A/	.
!LO:TX:t=P:problem=kreska pseudotaktowa	!	!	!	!	!
2d\	-o	.	.	.	.
!	!	!	!	!LO:TX:t=P:problem=kreska pseudotaktowa	!
.	.	.	.	4B/	.
=11-	=11-	=11-	=11-	=11-	=11-
2c\	gra-	.	.	4c\	ti-
.	.	.	.	4d\	.
!	!	!	!	!LO:TX:t=P:problem=kreska pseudotaktowa	!
4B\	.	.	.	2e\	.
!LO:TX:t=P:problem=kreska pseudotaktowa	!	!	!	!	!
4A\	.	.	.	.	.
!LO:LB:g=original	!	!	!	!LO:LB:g=original	!
!LO:TX:t=P:problem=kreska pseudotaktowa	!	!	!	!LO:TX:t=P:problem=kreska pseudotaktowa	!
1B	.	.	.	1d	-as
=12-	=12-	=12-	=12-	=12-	=12-
!	!	!LO:TX:t=P:problem=kreska pseudotaktowa	!	!	!
2c#X\	.	2G/	.	2r	.
!	!	!LO:TX:t=P:problem=kreska pseudotaktowa	!	!LO:TX:t=P:problem=kreska pseudotaktowa	!
1d	.	1F	.	2a\	De-
.	.	.	.	2g\	-o
!LO:TX:t=P:problem=kreska pseudotaktowa	!	!LO:TX:t=P:problem=kreska pseudotaktowa	!	!	!
2c#X\	-ti-	1E/	.	4f\	.
!	!	!	!	!LO:TX:t=P:problem=kreska pseudotaktowa	!
.	.	.	.	4e\	.
=13-	=13-	=13-	=13-	=13-	=13-
!LO:TX:t=P:problem=kreska pseudotaktowa	!	!	!	!LO:TX:t=P:problem=kreska pseudotaktowa	!
1d	-as	.	.	1f	.
!	!	!LO:TX:t=P:problem=kreska pseudotaktowa	!	!	!
.	.	1D	.	.	.
!LO:TX:t=P:problem=kreska pseudotaktowa	!	!	!	!	!
1B	.	.	.	2e\	gra-
!	!	!LO:TX:t=P:problem=kreska pseudotaktowa	!	!	!
.	.	1E/	.	1g\	.
=14-	=14-	=14-	=14-	=14-	=14-
2r	.	.	.	.	.
!LO:TX:t=P:problem=kreska pseudotaktowa	!	!LO:TX:t=P:problem=kreska pseudotaktowa	!	!LO:TX:t=P:problem=kreska pseudotaktowa	!
2d\	De-	1G	.	2fn\	.
2d\	-o-	.	.	2e\	.
!LO:TX:t=P::problem=kreska pseudotaktowa&colon;między nutą a kropką	!	!LO:TX:t=P:problem=kreska pseudotaktowa	!	!LO:TX:t=P::problem=kreska pseudotaktowa&colon;między nutą i kropką	!
[2cny\	.	0A\	.	2.a\	.
=15-	=15-	=15-	=15-	=15-	=15-
!LO:N:xstem:cue	!	!	!	!	!
4c]	.	.	.	.	.
4B\	.	.	.	4g\	.
1A	.	.	.	1f	.
!LO:TX:t=P:problem=kreska pseudotaktowa	!	!LO:TX:t=P:problem=kreska pseudotaktowa	!	!	!
2G#X/	.	1D/	.	4e\	.
!	!	!	!	!LO:TX:t=P:problem=kreska pseudotaktowa	!
.	.	.	.	4d\	.
=16-	=16-	=16-	=16-	=16-	=16-
!LO:TX:t=P:problem=kreska pseudotaktowa	!	!	!	!	!
1A	-gra-	.	.	2c\	.
.	.	2E/	.	4B/	.
!	!	!	!	!LO:TX:t=P:problem=kreska pseudotaktowa	!
.	.	.	.	4A/	.
!LO:TX:t=P:problem=kreska pseudotaktowa	!	!LO:TX:t=P:problem=kreska pseudotaktowa	!	!	!
1B-X	.	2F/	.	2d\	.
.	.	1.G/	.	4e\	.
!	!	!	!	!LO:TX:t=P:problem=kreska pseudotaktowa	!
.	.	.	.	4d\	.
=17-	=17-	=17-	=17-	=17-	=17-
!LO:TX:t=P:problem=kreska pseudotaktowa	!	!	!	!	!
1A	.	.	.	2c#X\	.
.	.	.	.	1d	.
!	!	!LO:TX:t=P:problem=kreska pseudotaktowa	!	!	!
2.A/	.	2F/	.	.	.
.	.	0.E/	.	4c#X/	-ti-
!LO:TX:t=P:problem=kreska pseudotaktowa	!	!	!	!LO:TX:t=P:problem=kreska pseudotaktowa	!
4A/	-ti-	.	.	4B/	.
=18-	=18-	=18-	=18-	=18-	=18-
!	!	!	!	!LO:TX:t=P:problem=kreska pseudotaktowa	!
2A/	-as	.	.	1c#X	-as
!LO:TX:t=P:problem=kreska pseudotaktowa	!	!	!	!	!
2r	.	.	.	.	.
2A/	De-	.	.	1.d	De-
!LO:TX:t=P:problem=kreska pseudotaktowa	!	!	!	!	!
2d\	.	.	.	.	.
=19-	=19-	=19-	=19-	=19-	=19-
!LO:TX:t=P:problem=kreska pseudotaktowa	!	!	!	!	!
1F	-o	.	.	.	.
!	!	!LO:TX:t=P:problem=kreska pseudotaktowa	!	!LO:TX:t=P:problem=kreska pseudotaktowa	!
.	.	2D/	-ti-	2d\	-o
!	!	!LO:TX:a:t=5.	!	!	!
2Gny\	gra-	1%5D	-as.	4d\	gra-
.	.	.	.	4e\	.
!LO:TX:t=P:problem=kreska pseudotaktowa	!	!	!	!LO:TX:t=P:problem=kreska pseudotaktowa	!
2A\	.	.	.	2f#X\	.
=20-	=20-	=20-	=20-	=20-	=20-
1.B-X	.	.	.	2d\	.
.	.	.	.	1g	.
4A\	.	.	.	4f#X\	-ti-
!LO:TX:t=P:problem=kreska pseudotaktowa	!	!	!	!LO:TX:t=P:problem=kreska pseudotaktowa	!
4G\	-ti-	.	.	4e\	.
=21-	=21-	=21-	=21-	=21-	=21-
0A;>	-as	.	.	0f#X	-as.
=-	=-	=-	=-	=-	=-
*-	*-	*-	*-	*-	*-
!!!system-decoration: [(s1,s2,s3)]
!!!RDF**kern: < = below
!!!RDF**kern: > = above
!!!ENC: Marta Chmielewska
!!!END: 2021-08-04
!!!ENC: Marcin Jachim
!!!END: 2021-08-02
!!!YEC: Copyright 2022 Narodowy Instytut Fryderyka Chopina (https://polishscores.org)
!!!YEM: License CC-BY-4.0 (https://creativecommons.org/licenses/by/4.0)
